dist/assets/images/icons/socials/google.svg

<svg width="40" height="40" viewBox="0 0 40 40" fill="none" xmlns="http://www.w3.org/2000/svg">
<path fill-rule="evenodd" clip-rule="evenodd" d="M20 0C8.95431 0 0 8.95431 0 20C0 31.0457 8.95431 40 20 40C31.0457 40 40 31.0457 40 20C40 8.95431 31.0457 0 20 0ZM20.6641 18.7969H29.3984C29.534 19.3546 29.6047 19.9261 29.6094 20.5C29.6094 26.4688 25.3516 29.875 20.6641 29.875C19.1463 29.8785 17.6504 29.5133 16.3049 28.811C14.9593 28.1087 13.8044 27.0903 12.9394 25.8431C12.0744 24.5959 11.5251 23.1574 11.3387 21.6511C11.1524 20.1448 11.3345 18.6158 11.8695 17.1954C12.4045 15.7751 13.2764 14.5058 14.4102 13.4968C15.544 12.4878 16.9058 11.7691 18.3787 11.4025C19.8515 11.036 21.3914 11.0325 22.8659 11.3924C24.3404 11.7523 25.7054 12.4648 26.8438 13.4688L24.1172 16.1953C23.1425 15.3987 21.9229 14.9627 20.6641 14.9609C19.195 14.9609 17.7861 15.5445 16.7474 16.5833C15.7086 17.6221 15.125 19.031 15.125 20.5C15.125 21.9691 15.7086 23.3779 16.7474 24.4167C17.7861 25.4555 19.195 26.0391 20.6641 26.0391C23.2656 26.0391 25.2266 24.7188 25.6953 22.4141H20.6641V18.7969Z" fill="#101112"/>
</svg>

<svg width="40" height="40" fill="none" xmlns="http://www.w3.org/2000/svg"><path fill-rule="evenodd" clip-rule="evenodd" d="M20 0C8.954 0 0 8.954 0 20s8.954 20 20 20 20-8.954 20-20S31.046 0 20 0zm.664 18.797h8.734c.136.558.207 1.13.211 1.703 0 5.969-4.257 9.375-8.945 9.375a9.374 9.374 0 116.18-16.406l-2.727 2.726a5.469 5.469 0 00-3.453-1.234 5.539 5.539 0 100 11.078c2.602 0 4.563-1.32 5.031-3.625h-5.03v-3.617z" fill="#101112"/></svg>
